ui/StatusQ/src/assets/img/icons/thumbs-down.svg

<svg fill="none" height="24" viewBox="0 0 24 24" width="24" xmlns="http://www.w3.org/2000/svg"><path d="m19.9468 9.04834c0-2.58545-1.6553-4.70215-3.7793-4.70215h-2.4097c-.9888-.50537-2.1606-.79834-3.4497-.79834h-1.02539c-.95214 0-1.76513.0586-2.29248.19043-1.07666.26367-1.75781 1.03272-1.75781 1.99219 0 .16846.0293.32959.07324.4834-.50537.39551-.79101.96679-.79101 1.59668 0 .29297.05859.57861.16113.82031-.33691.35889-.53467.87891-.53467 1.41354 0 .3516.08789.7105.23438.9888-.20508.3076-.32227.7251-.32227 1.1865 0 1.1719.89356 2.0728 2.05078 2.0728h2.72461c.15381 0 .25635.0732.24903.2124-.03662.7544-1.22315 2.5708-1.22315 4.0576 0 1.0913.76905 1.8896 1.83106 1.8896.76905 0 1.29635-.4028 1.80175-1.3623.9155-1.7578 2.0142-3.2959 3.6475-5.31h1.311c1.9922 0 3.501-2.1021 3.501-4.73146zm-4.563.05859c0 1.55277-.3442 2.54147-1.3403 3.87447-1.106 1.4795-2.6441 3.2666-3.75 5.4786-.2344.4614-.39555.5712-.6226.5712-.27832 0-.46143-.1977-.46143-.5493 0-1.084 1.23783-2.9004 1.23783-4.0942 0-.8789-.71048-1.4502-1.67728-1.4502h-2.6294c-.4248 0-.73974-.3149-.73974-.7397 0-.3003.10254-.4981.35156-.7471.19043-.1978.21973-.4761.05127-.6665-.2124-.3003-.30029-.4907-.30029-.7398 0-.30026.13916-.55661.43213-.77633.24902-.17578.33691-.47608.19043-.76905-.15381-.29297-.23438-.44677-.23438-.67382 0-.35157.22705-.62256.68115-.86426.2417-.13184.30762-.38819.20508-.62256-.15381-.37354-.17578-.43945-.16845-.60059 0-.31494.22705-.56396.71777-.68847.43213-.10987 1.1206-.15381 2.02881-.14649l.94484.00733c3.0322.02929 5.083 1.72851 5.083 4.19677zm3.2373-.05859c0 1.86036-.9595 3.34716-2.0581 3.39116-.1904.0073-.3809.0073-.5713.0073.52-1.0181.7471-2.0728.7471-3.33987 0-1.34765-.4688-2.53418-1.3184-3.46435.271 0 .5493.00732.8276.00732 1.2818.05127 2.3731 1.55274 2.3731 3.39844z" fill="#000"/></svg>

<svg width="24" height="24" viewBox="0 0 24 24" fill="none" xmlns="http://www.w3.org/2000/svg">
<path d="M19.9468 9.04834C19.9468 6.46289 18.2915 4.34619 16.1675 4.34619H13.7578C12.769 3.84082 11.5972 3.54785 10.3081 3.54785H9.28271C8.33057 3.54785 7.51758 3.60645 6.99023 3.73828C5.91357 4.00195 5.23242 4.771 5.23242 5.73047C5.23242 5.89893 5.26172 6.06006 5.30566 6.21387C4.80029 6.60938 4.51465 7.18066 4.51465 7.81055C4.51465 8.10352 4.57324 8.38916 4.67578 8.63086C4.33887 8.98975 4.14111 9.50977 4.14111 10.0444C4.14111 10.396 4.229 10.7549 4.37549 11.0332C4.17041 11.3408 4.05322 11.7583 4.05322 12.2197C4.05322 13.3916 4.94678 14.2925 6.104 14.2925H8.82861C8.98242 14.2925 9.08496 14.3657 9.07764 14.5049C9.04102 15.2593 7.85449 17.0757 7.85449 18.5625C7.85449 19.6538 8.62354 20.4521 9.68555 20.4521C10.4546 20.4521 10.9819 20.0493 11.4873 19.0898C12.4028 17.332 13.5015 15.7939 15.1348 13.7798H16.4458C18.438 13.7798 19.9468 11.6777 19.9468 9.04834ZM15.3838 9.10693C15.3838 10.6597 15.0396 11.6484 14.0435 12.9814C12.9375 14.4609 11.3994 16.248 10.2935 18.46C10.0591 18.9214 9.89795 19.0312 9.6709 19.0312C9.39258 19.0312 9.20947 18.8335 9.20947 18.4819C9.20947 17.3979 10.4473 15.5815 10.4473 14.3877C10.4473 13.5088 9.73682 12.9375 8.77002 12.9375H6.14062C5.71582 12.9375 5.40088 12.6226 5.40088 12.1978C5.40088 11.8975 5.50342 11.6997 5.75244 11.4507C5.94287 11.2529 5.97217 10.9746 5.80371 10.7842C5.59131 10.4839 5.50342 10.2935 5.50342 10.0444C5.50342 9.74414 5.64258 9.48779 5.93555 9.26807C6.18457 9.09229 6.27246 8.79199 6.12598 8.49902C5.97217 8.20605 5.8916 8.05225 5.8916 7.8252C5.8916 7.47363 6.11865 7.20264 6.57275 6.96094C6.81445 6.8291 6.88037 6.57275 6.77783 6.33838C6.62402 5.96484 6.60205 5.89893 6.60938 5.73779C6.60938 5.42285 6.83643 5.17383 7.32715 5.04932C7.75928 4.93945 8.44775 4.89551 9.35596 4.90283L10.3008 4.91016C13.333 4.93945 15.3838 6.63867 15.3838 9.10693ZM18.6211 9.04834C18.6211 10.9087 17.6616 12.3955 16.563 12.4395C16.3726 12.4468 16.1821 12.4468 15.9917 12.4468C16.5117 11.4287 16.7388 10.374 16.7388 9.10693C16.7388 7.75928 16.27 6.57275 15.4204 5.64258C15.6914 5.64258 15.9697 5.6499 16.248 5.6499C17.5298 5.70117 18.6211 7.20264 18.6211 9.04834Z" fill="black"/>
</svg>
